!! 00000] TT[WS
!!!OTL: Shilai ge
!!!ARE: Asia, China, Shanxi Wenxi
!! Ethnic Group: Han
!! Wang Sen
!!!SCT: J0373
!!!YEM: Copyright 1995, estate of Helmut Schaffrath.
**kern
*ICvox
*Ivox
!! Mixed meters:  2/4; 3/4
*M3/4
*k[b-]
*F:
{8cc
8cc
8a
8cc
=1
8ff
16dd
16cc
8a
8ff
=2
8dd
16cc
16a
8.g
16f
4g}
=3
*M2/4
{8.cc
16a
16dd
16ff
16dd
16cc
=4
16g
16a
8cc
8.f
16d
=5
16g
16g
16g
16a
16g
16f
8d
=6
8.c
16d
4c}
=7
{8.c
16d
8g
8f
=8
16g
16g
16g
16a
16g
16f
8d
=9
8.c
16d
4c}
==
!!!AGN: Xiaodiao. Xinminge, Xuanchuan
!! Neue Text. Politische Liede
!!!ONB: ESAC (Essen Associative Code) Database: CHINA
!!!AMT: irregular
!!!AIN: vox
!!!EED: Helmut Schaffrath
!!!EEV: 1.0
*-
